X:175
T:Liverpool Hornpipe, The
R:hp 32
C:Trad arr. P J Headford
M:4/4
L:1/8
Q:1/4=140
K:D
|:AG|FDFA dfaf|gfed dcBA|GBGB FAFA|EDEF GFED|
FDFA dfaf|gfed dcBA|dfaf bgec|d2d2 d2:|
|:(3ABc|dfdf cece|BABc dcBA|GBGB FAF|EDEF GFED|
FDFA dfaf|gfed dcBA|dfaf bgec|d2d2 d2:|]

